!!!!SEGMENT:pl-wtm--r-1461--005_stefani-jozef-wszechstronne-cwiczenia-glosowe-tercje-proste.krn
!!!id: 18xx:2182
!!!COM: Stefani, Józef
!!!OTL: Wszechstronne ćwiczenia głosowe – Tercje proste
!!!PDT:
!!!SMS-siglum: PL-Wtm
!!!SMS-shelfmark: R 1461
!!!SMS-variant:
!!!SMS-altvar:
!!!NIFC-rismID: 1001120710
!!!system-decoration: s1{(s2,s3)}
**kern	**kern	**kern	**text	**text
*part2	*part2	*part1	*part1	*part1
*staff3	*staff2	*staff1	*staff1	*staff1
*	*I"Fortepian	*I"Sopran/Tenor	*	*
*	*I'pf	*I'S	*	*
*clefF4	*clefG2	*clefG2	*	*
*k[]	*k[]	*k[]	*	*
*M2/2	*M2/2	*M2/2	*	*
*met(c|)	*met(c|)	*met(c|)	*	*
=1	=1	=1	=1	=1
*2\right	*2\right	*2\right	*	*
!	!	!LO:TX:a:Bi:t=Tercje proste.	!	!
2C\	2c 2G 2E/	2c^>/	do	c.
2AA\	2e 2c/	2e^>/	mi	e.
=2	=2	=2	=2	=2
2FF/	2d 2c/	2d^>/	re	d
2GG/	2f 2d 2B/	2f^>/	fa	f
=3	=3	=3	=3	=3
2C/	2e 2c/	2e^>/	mi	.
2BB-X/	2g 2e 2c/	2g^>/	sol	.
=4	=4	=4	=4	=4
2AA/	2f 2c/	2f^>/	fa	.
2F\	2a 2f 2c/	2a^>/	la	.
=5	=5	=5	=5	=5
2E\	2g 2c/	2g^>/	sol	.
2D\	2b 2g/	2b^>/	si	.
=6	=6	=6	=6	=6
2C/	2a 2e/	2a^>/	la	.
2D\	2cc 2a 2f#X/	2cc^>\	do	.
!!LO:LB:g=original
=7	=7	=7	=7	=7
2G\	2b 2g/	2b^>\	si	.
2GG/	2dd 2b 2g 2f/	2dd^>\	re	.
=8	=8	=8	=8	=8
2C/	2cc 2g 2e/	2cc^>\	do	.
2c\	2ee 2cc 2g\	2ee^>\	mi	.
=9	=9	=9	=9	=9
2B\	2dd 2g\	2dd^>\	re	.
2A\	2ff 2cc 2f\	2ff^>\	fa	.
=10	=10	=10	=10	=10
2G\	2ee 2cc 2g\	2ee^>\	mi	.
2E\	2gg 2cc 2b-X\	2gg^>\	sol	.
=11	=11	=11	=11	=11
2F\	2ff 2cc 2a\	2ff^>\	fa	.
2F 2FF/	2aa 2ff 2cc\	2aa^>\	la	.
=12||	=12||	=12||	=12||	=12||
2F 2FF/	2aa 2ff 2cc\	2aa^>\	la	.
2A 2AA\	2ff 2cc 2f\	2ff^>\	fa	.
!!LO:LB:g=original
=13	=13	=13	=13	=13
2E 2EE/	2gg 2cc 2g\	2gg^>\	sol	.
2C/	2ee 2cc 2g\	2ee^>\	mi	.
=14	=14	=14	=14	=14
2AA/	2ff 2cc 2f\	2ff^>\	fa	.
2BB/	2dd 2g\	2dd^>\	re	.
=15	=15	=15	=15	=15
2GG/	2ee 2b 2e\	2ee^>\	mi	.
2AA/	2cc 2e/	2cc^>\	do	.
=16	=16	=16	=16	=16
2FF/	2dd 2a 2d/	2dd^>\	re	.
2GG/	2b 2f 2d/	2b^>\	si	.
=17	=17	=17	=17	=17
2AA/	2cc 2e 2c/	2cc^>\	do	.
2D\	2a 2f#X 2d/	2a^>/	la	.
=18	=18	=18	=18	=18
2GG/	2b 2g 2d/	2b^>/	si	.
2BB/	2g 2d/	2g^>/	sol	.
!!LO:LB:g=original
=19	=19	=19	=19	=19
2C#X\	2a 2e 2A/	2a^>/	la	.
2D\	2f 2d 2A/	2f^>/	fa	.
=20	=20	=20	=20	=20
2BB\	2g 2d 2G/	2g^>/	sol	.
2C\	2e 2c 2G/	2e^>/	mi	.
=21	=21	=21	=21	=21
2AA\	2f 2c 2F/	2f^>/	fa	.
2BB\	2d 2G/	2d^>/	re	.
=22	=22	=22	=22	=22
2GG#X\	2e 2B 2E/	2e^>/	mi	.
2AA\	2c 2A 2E/	2c^>/	do	.
=23	=23	=23	=23	=23
*	*^	*	*	*
!	!	!	!LO:TX:a:t=P:diminuendolike accent:problem	!	!
!	!	!LO:TX:a:t=P:note position:problem	!	!	!
2FF\	2c 2A/	1d	1d^>	re	.
2GG\	2B 2G/	.	.	.	.
*	*v	*v	*	*	*
=24	=24	=24	=24	=24
2.E 2.C\	2.c 2.G/	2.c/	do.	.
4r	4r	4r	.	.
==	==	==	==	==
*-	*-	*-	*-	*-
!!title: @{OTL};
!!!RDF**kern: > = above
!!!RDF**kern: < = below
!!!RDF**kern: | = vertical stroke
!!!RDF**kern: N = linked
!!!RDF**kern: i = editorial accidental
!!!ENC: Tomasz Grochalski
!!!END: 2021-05-16
!!!EED: Wojciech Jakubiak-Danek
!!!EST: 2021-06-03
!!!URL-scan: http://repozytorium.nifc.pl/skany/pl-wtm-nut--r1461
!!!ONB-nifc: UWAGA: skan 0005, s. 7
